X:8
T:66. Castle Kelly
S:Mike Rafferty
Z:Lesl
M:C|
L:1/8
K:Ador
|:A2BA A2BA|GBEG ~G2EG|A2BA GABd|egdB BAGE|
A2BA A2BA|GBEG ~G2EG|A2BA GABd|1 egdB BAGE:|2 egdB BAa2||
|:age^c d2ed|cAGE [Gg]~g2z|age^c dz (3B^cd|eaag ~a3b|
age^c d2ed|cAGE GGEG|Az BA GABd|1 egdB BAaz:|2 egdB BAA2||

